#src/img/payment/checked.svg

<svg width="35" height="40" viewBox="0 0 35 40" fill="none" xmlns="http://www.w3.org/2000/svg">
<path fill-rule="evenodd" clip-rule="evenodd" d="M29.1306 1.60001C29.7228 0.760622 30.5222 0.288219 31.356 0.284929C32.1898 0.28164 32.991 0.747728 33.5863 1.58243C34.1817 2.41713 34.5235 3.55338 34.5377 4.74551C34.5519 5.93764 34.2374 7.08988 33.6623 7.95311L16.7713 38.1455C16.481 38.5926 16.1306 38.9514 15.7411 39.2005C15.3516 39.4496 14.931 39.5838 14.5044 39.5951C14.0778 39.6064 13.654 39.4945 13.2583 39.2662C12.8627 39.038 12.5033 38.6979 12.2016 38.2665L1.01003 22.2567C0.698241 21.8412 0.448167 21.3402 0.274722 20.7836C0.101276 20.2269 0.00801181 19.626 0.000493866 19.0167C-0.00702408 18.4074 0.0713586 17.8022 0.230964 17.2371C0.39057 16.6721 0.628129 16.1588 0.929471 15.7279C1.23081 15.297 1.58976 14.9572 1.98491 14.729C2.38005 14.5008 2.8033 14.3887 3.22939 14.3994C3.65549 14.4102 4.0757 14.5436 4.46497 14.7916C4.85424 15.0396 5.20458 15.3972 5.49511 15.8431L14.3553 28.5069L29.0503 1.73312C29.0765 1.68625 29.1047 1.64179 29.1349 1.60001H29.1306Z" fill="#CA583E"/>
</svg>

<svg width="35" height="40" fill="none" xmlns="http://www.w3.org/2000/svg"><path fill-rule="evenodd" clip-rule="evenodd" d="M29.13 1.6C29.724.76 30.523.288 31.357.285c.834-.003 1.635.463 2.23 1.297.596.835.938 1.971.952 3.164.014 1.192-.3 2.344-.876 3.207l-16.89 30.192a3.5 3.5 0 01-1.03 1.055 2.4 2.4 0 01-1.238.395c-.426.011-.85-.1-1.246-.329a3.36 3.36 0 01-1.056-1L1.01 22.256a4.868 4.868 0 01-.735-1.472A6.226 6.226 0 010 19.017a6.297 6.297 0 01.231-1.78 5.05 5.05 0 01.698-1.51c.302-.43.66-.77 1.056-.998.395-.228.818-.34 1.244-.33.426.011.847.145 1.236.393.39.248.74.605 1.03 1.051l8.86 12.664L29.05 1.733a1.37 1.37 0 01.085-.133h-.004z" fill="#CA583E"/></svg>
